gtk-icons/Papirus-GTK/24x24/actions/view-form.svg

<?xml version="1.0" encoding="UTF-8" standalone="no"?>
<!-- Created with Inkscape (http://www.inkscape.org/) -->

<svg
   xmlns:osb="http://www.openswatchbook.org/uri/2009/osb"
   xmlns:dc="http://purl.org/dc/elements/1.1/"
   xmlns:cc="http://creativecommons.org/ns#"
   xmlns:rdf="http://www.w3.org/1999/02/22-rdf-syntax-ns#"
   xmlns:svg="http://www.w3.org/2000/svg"
   xmlns="http://www.w3.org/2000/svg"
   xmlns:sodipodi="http://sodipodi.sourceforge.net/DTD/sodipodi-0.dtd"
   xmlns:inkscape="http://www.inkscape.org/namespaces/inkscape"
   sodipodi:docname="view-form.svg"
   inkscape:export-filename="/home/sam/source-symbolic.png"
   inkscape:export-xdpi="270"
   inkscape:export-ydpi="270"
   height="24"
   id="svg7384"
   style="enable-background:new"
   version="1.1"
   inkscape:version="0.91 r13725"
   width="24">
  <sodipodi:namedview
     inkscape:bbox-nodes="true"
     inkscape:bbox-paths="false"
     bordercolor="#666666"
     borderlayer="false"
     borderopacity="1"
     inkscape:current-layer="layer12"
     inkscape:cx="2.380925"
     inkscape:cy="5.5296193"
     gridtolerance="10"
     inkscape:guide-bbox="true"
     guidetolerance="10"
     id="namedview88"
     inkscape:object-nodes="true"
     inkscape:object-paths="true"
     objecttolerance="10"
     pagecolor="#f7f7f7"
     inkscape:pageopacity="0"
     inkscape:pageshadow="2"
     showborder="true"
     showgrid="false"
     showguides="true"
     inkscape:showpageshadow="false"
     inkscape:snap-bbox="true"
     inkscape:snap-bbox-edge-midpoints="false"
     inkscape:snap-bbox-midpoints="true"
     inkscape:snap-center="false"
     inkscape:snap-global="true"
     inkscape:snap-grids="true"
     inkscape:snap-intersection-paths="true"
     inkscape:snap-midpoints="true"
     inkscape:snap-nodes="true"
     inkscape:snap-object-midpoints="true"
     inkscape:snap-others="true"
     inkscape:snap-page="false"
     inkscape:snap-smooth-nodes="true"
     inkscape:snap-to-guides="true"
     inkscape:window-height="847"
     inkscape:window-maximized="1"
     inkscape:window-width="1600"
     inkscape:window-x="0"
     inkscape:window-y="30"
     inkscape:zoom="19.88">
    <inkscape:grid
       color="#000000"
       dotted="false"
       empcolor="#0800ff"
       empopacity="0.4627451"
       empspacing="4"
       enabled="true"
       id="grid4866"
       opacity="0.16470588"
       originx="-343.99998"
       originy="-176"
       snapvisiblegridlinesonly="true"
       spacingx="0.25px"
       spacingy="0.25px"
       type="xygrid"
       visible="true" />
  </sodipodi:namedview>
  <metadata
     id="metadata90">
    <rdf:RDF>
      <cc:Work
         rdf:about="">
        <dc:format>image/svg+xml</dc:format>
        <dc:type
           rdf:resource="http://purl.org/dc/dcmitype/StillImage" />
        <dc:title>Paper Symbolic Icon Theme</dc:title>
      </cc:Work>
    </rdf:RDF>
  </metadata>
  <title
     id="title8473">Paper Symbolic Icon Theme</title>
  <defs
     id="defs7386">
    <linearGradient
       id="linearGradient5606"
       osb:paint="solid">
      <stop
         id="stop5608"
         offset="0"
         style="stop-color:#000000;stop-opacity:1;" />
    </linearGradient>
    <style
       id="current-color-scheme"
       type="text/css">
      .ColorScheme-Text {
        color:#4d4d4d;
      }
      .ColorScheme-Background {
        color:#eff0f1;
      }
      .ColorScheme-Highlight {
        color:#3daee9;
      }
      .ColorScheme-ViewText {
        color:#31363b;
      }
      .ColorScheme-ViewBackground {
        color:#fcfcfc;
      }
      .ColorScheme-ViewHover {
        color:#93cee9;
      }
      .ColorScheme-ViewFocus{
        color:#3daee9;
      }
      .ColorScheme-ButtonText {
        color:#31363b;
      }
      .ColorScheme-ButtonBackground {
        color:#eff0f1;
      }
      .ColorScheme-ButtonHover {
        color:#93cee9;
      }
      .ColorScheme-ButtonFocus{
        color:#3daee9;
      }
      </style>
    <style
       id="current-color-scheme-0"
       type="text/css">
      .ColorScheme-Text {
        color:#4d4d4d;
      }
      .ColorScheme-Background {
        color:#eff0f1;
      }
      .ColorScheme-Highlight {
        color:#3daee9;
      }
      .ColorScheme-ViewText {
        color:#31363b;
      }
      .ColorScheme-ViewBackground {
        color:#fcfcfc;
      }
      .ColorScheme-ViewHover {
        color:#93cee9;
      }
      .ColorScheme-ViewFocus{
        color:#3daee9;
      }
      .ColorScheme-ButtonText {
        color:#31363b;
      }
      .ColorScheme-ButtonBackground {
        color:#eff0f1;
      }
      .ColorScheme-ButtonHover {
        color:#93cee9;
      }
      .ColorScheme-ButtonFocus{
        color:#3daee9;
      }
      </style>
  </defs>
  <g
     inkscape:groupmode="layer"
     id="layer12"
     inkscape:label="actions"
     style="display:inline"
     transform="translate(-585.00018,-33)">
    <path
       style="color:#000000;font-style:normal;font-variant:normal;font-weight:normal;font-stretch:normal;font-size:medium;line-height:normal;font-family:Sans;-inkscape-font-specification:Sans;text-indent:0;text-align:start;text-decoration:none;text-decoration-line:none;letter-spacing:normal;word-spacing:normal;text-transform:none;direction:ltr;block-progression:tb;writing-mode:lr-tb;baseline-shift:baseline;text-anchor:start;display:inline;overflow:visible;visibility:visible;opacity:0.5;fill:#000000;fill-opacity:1;fill-rule:nonzero;stroke:none;stroke-width:2;marker:none;enable-background:new"
       d="M 6 5 C 6 5 5.9237994 5.0040975 5.8183594 5.0234375 C 5.6142394 5.0535875 5.4596731 5.1269285 5.3457031 5.2265625 C 5.3236031 5.2435025 5.30215 5.26163 5.28125 5.28125 C 5.26165 5.30222 5.2435625 5.3236331 5.2265625 5.3457031 C 5.1269625 5.4596741 5.0535875 5.6142434 5.0234375 5.8183594 C 5.0040175 5.9237694 5 6 5 6 L 5 13 L 5 18 C 5 19 6 19 6 19 L 11 19 L 13 19 L 18 19 C 18 19 19 19 19 18 L 19 13 L 19 6 C 19 6 18.995963 5.9237704 18.976562 5.8183594 C 18.946463 5.6142434 18.873057 5.4596741 18.773438 5.3457031 C 18.756538 5.3236331 18.73835 5.30222 18.71875 5.28125 C 18.69775 5.26163 18.676197 5.2435025 18.654297 5.2265625 C 18.540327 5.1269325 18.385761 5.0535885 18.181641 5.0234375 C 18.076071 5.0040995 18 5 18 5 L 6 5 z M 8 9 L 10 9 L 11 9 L 11 10 L 11 11 L 11 13 L 11 14 L 11 15 L 10 15 L 8 15 L 8 13 L 8 11 L 8 9 z M 12 10 L 16 10 L 16 11 L 12 11 L 12 10 z M 12 13 L 16 13 L 16 14 L 12 14 L 12 13 z "
       transform="translate(585.00018,33)"
       id="path4393" />
    <rect
       style="color:#4d4d4d;fill:currentColor;fill-opacity:1;stroke:none"
       id="rect4035"
       width="0"
       height="10.999983"
       x="561.09967"
       y="45.285339"
       class="ColorScheme-Text" />
    <rect
       style="color:#4d4d4d;fill:currentColor;fill-opacity:1;stroke:none"
       id="rect4035-5"
       width="0"
       height="10.999983"
       x="579.14044"
       y="43.234009"
       class="ColorScheme-Text" />
    <rect
       style="color:#4d4d4d;fill:currentColor;fill-opacity:1;stroke:none"
       id="rect4035-8"
       width="0"
       height="10.999983"
       x="561.09967"
       y="45.285339"
       class="ColorScheme-Text" />
    <rect
       style="color:#4d4d4d;fill:currentColor;fill-opacity:1;stroke:none"
       id="rect4035-59"
       width="0"
       height="10.999983"
       x="561.09967"
       y="45.285339"
       class="ColorScheme-Text" />
    <rect
       style="color:#4d4d4d;fill:currentColor;fill-opacity:1;stroke:none"
       id="rect4035-1"
       width="0"
       height="10.999983"
       x="574.09967"
       y="45.285339"
       class="ColorScheme-Text" />
    <rect
       style="color:#4d4d4d;fill:currentColor;fill-opacity:1;stroke:none"
       id="rect4035-2"
       width="0"
       height="10.999983"
       x="567.95941"
       y="45.551331"
       class="ColorScheme-Text" />
    <rect
       style="color:#4d4d4d;fill:currentColor;fill-opacity:1;stroke:none"
       id="rect4035-5-6"
       width="0"
       height="10.999983"
       x="586.00018"
       y="43.5"
       class="ColorScheme-Text" />
    <rect
       style="color:#4d4d4d;fill:currentColor;fill-opacity:1;stroke:none"
       id="rect4035-8-0"
       width="0"
       height="10.999983"
       x="567.95941"
       y="45.551331"
       class="ColorScheme-Text" />
    <rect
       style="color:#4d4d4d;fill:currentColor;fill-opacity:1;stroke:none"
       id="rect4035-59-5"
       width="0"
       height="10.999983"
       x="567.95941"
       y="45.551331"
       class="ColorScheme-Text" />
    <text
       sodipodi:linespacing="125%"
       id="text3781"
       y="58.308594"
       x="583.39539"
       style="color:#4d4d4d;font-style:normal;font-weight:normal;font-size:9px;line-height:125%;font-family:Sans;letter-spacing:0px;word-spacing:0px;fill:currentColor;fill-opacity:1;stroke:none"
       xml:space="preserve"
       class="ColorScheme-Text"><tspan
         id="tspan3783"
         sodipodi:role="line"
         x="583.39539"
         y="58.308594" /></text>
    <text
       sodipodi:linespacing="125%"
       id="text3781-8"
       y="52.445251"
       x="584.13208"
       style="color:#4d4d4d;font-style:normal;font-weight:normal;font-size:9px;line-height:125%;font-family:Sans;letter-spacing:0px;word-spacing:0px;fill:currentColor;fill-opacity:1;stroke:none"
       xml:space="preserve"
       class="ColorScheme-Text"><tspan
         id="tspan3783-1"
         sodipodi:role="line"
         x="584.13208"
         y="52.445251" /></text>
    <text
       sodipodi:linespacing="125%"
       id="text3781-4"
       y="59.308594"
       x="577.39539"
       style="color:#4d4d4d;font-style:normal;font-weight:normal;font-size:9px;line-height:125%;font-family:Sans;letter-spacing:0px;word-spacing:0px;fill:currentColor;fill-opacity:1;stroke:none"
       xml:space="preserve"
       class="ColorScheme-Text"><tspan
         id="tspan3783-13"
         sodipodi:role="line"
         x="577.39539"
         y="59.308594" /></text>
    <rect
       style="color:#4d4d4d;fill:currentColor;fill-opacity:1;stroke:none"
       id="rect4035-9"
       width="0"
       height="10.999983"
       x="567.95941"
       y="45.551331"
       class="ColorScheme-Text" />
    <rect
       style="color:#4d4d4d;fill:currentColor;fill-opacity:1;stroke:none"
       id="rect4035-5-7"
       width="0"
       height="10.999983"
       x="586.00018"
       y="43.5"
       class="ColorScheme-Text" />
    <rect
       style="color:#4d4d4d;fill:currentColor;fill-opacity:1;stroke:none"
       id="rect4035-9-0"
       width="0"
       height="10.999983"
       x="547.95941"
       y="45.551331"
       class="ColorScheme-Text" />
    <rect
       style="color:#4d4d4d;fill:currentColor;fill-opacity:1;stroke:none"
       id="rect4035-5-7-5"
       width="0"
       height="10.999983"
       x="566.00018"
       y="43.5"
       class="ColorScheme-Text" />
    <rect
       style="color:#4d4d4d;fill:currentColor;fill-opacity:1;stroke:none"
       id="rect4035-0"
       width="0"
       height="10.999983"
       x="565.09967"
       y="42.285339"
       class="ColorScheme-Text" />
    <rect
       style="color:#4d4d4d;fill:currentColor;fill-opacity:1;stroke:none"
       id="rect4035-5-2"
       width="0"
       height="10.999983"
       x="583.14044"
       y="40.234009"
       class="ColorScheme-Text" />
    <rect
       style="color:#4d4d4d;fill:currentColor;fill-opacity:1;stroke:none"
       id="rect4035-8-6"
       width="0"
       height="10.999983"
       x="565.09967"
       y="42.285339"
       class="ColorScheme-Text" />
    <rect
       style="color:#4d4d4d;fill:currentColor;fill-opacity:1;stroke:none"
       id="rect4035-59-0"
       width="0"
       height="10.999983"
       x="565.09967"
       y="42.285339"
       class="ColorScheme-Text" />
    <rect
       style="color:#4d4d4d;fill:currentColor;fill-opacity:1;stroke:none"
       id="rect4035-1-1"
       width="0"
       height="10.999983"
       x="578.09967"
       y="42.285339"
       class="ColorScheme-Text" />
    <rect
       style="color:#4d4d4d;fill:currentColor;fill-opacity:1;stroke:none"
       id="rect4035-2-5"
       width="0"
       height="10.999983"
       x="571.95941"
       y="42.551331"
       class="ColorScheme-Text" />
    <rect
       style="color:#4d4d4d;fill:currentColor;fill-opacity:1;stroke:none"
       id="rect4035-5-6-5"
       width="0"
       height="10.999983"
       x="590.00018"
       y="40.5"
       class="ColorScheme-Text" />
    <rect
       style="color:#4d4d4d;fill:currentColor;fill-opacity:1;stroke:none"
       id="rect4035-8-0-7"
       width="0"
       height="10.999983"
       x="571.95941"
       y="42.551331"
       class="ColorScheme-Text" />
    <rect
       style="color:#4d4d4d;fill:currentColor;fill-opacity:1;stroke:none"
       id="rect4035-59-5-9"
       width="0"
       height="10.999983"
       x="571.95941"
       y="42.551331"
       class="ColorScheme-Text" />
    <text
       sodipodi:linespacing="125%"
       id="text3781-1"
       y="55.308594"
       x="587.39539"
       style="color:#4d4d4d;font-style:normal;font-weight:normal;font-size:9px;line-height:125%;font-family:Sans;letter-spacing:0px;word-spacing:0px;fill:currentColor;fill-opacity:1;stroke:none"
       xml:space="preserve"
       class="ColorScheme-Text"><tspan
         id="tspan3783-9"
         sodipodi:role="line"
         x="587.39539"
         y="55.308594" /></text>
    <text
       sodipodi:linespacing="125%"
       id="text3781-8-5"
       y="49.445251"
       x="588.13208"
       style="color:#4d4d4d;font-style:normal;font-weight:normal;font-size:9px;line-height:125%;font-family:Sans;letter-spacing:0px;word-spacing:0px;fill:currentColor;fill-opacity:1;stroke:none"
       xml:space="preserve"
       class="ColorScheme-Text"><tspan
         id="tspan3783-1-1"
         sodipodi:role="line"
         x="588.13208"
         y="49.445251" /></text>
    <text
       sodipodi:linespacing="125%"
       id="text3781-4-7"
       y="56.308594"
       x="581.39539"
       style="color:#4d4d4d;font-style:normal;font-weight:normal;font-size:9px;line-height:125%;font-family:Sans;letter-spacing:0px;word-spacing:0px;fill:currentColor;fill-opacity:1;stroke:none"
       xml:space="preserve"
       class="ColorScheme-Text"><tspan
         id="tspan3783-13-3"
         sodipodi:role="line"
         x="581.39539"
         y="56.308594" /></text>
    <rect
       style="color:#4d4d4d;fill:currentColor;fill-opacity:1;stroke:none"
       id="rect4035-9-07"
       width="0"
       height="10.999983"
       x="571.95941"
       y="42.551331"
       class="ColorScheme-Text" />
    <rect
       style="color:#4d4d4d;fill:currentColor;fill-opacity:1;stroke:none"
       id="rect4035-5-7-59"
       width="0"
       height="10.999983"
       x="590.00018"
       y="40.5"
       class="ColorScheme-Text" />
    <rect
       style="color:#4d4d4d;fill:currentColor;fill-opacity:1;stroke:none"
       id="rect4035-9-0-1"
       width="0"
       height="10.999983"
       x="551.95941"
       y="42.551331"
       class="ColorScheme-Text" />
    <rect
       style="color:#4d4d4d;fill:currentColor;fill-opacity:1;stroke:none"
       id="rect4035-5-7-5-2"
       width="0"
       height="10.999983"
       x="570.00018"
       y="40.5"
       class="ColorScheme-Text" />
  </g>
</svg>

<?xml version="1.0" encoding="UTF-8" standalone="no"?>
<!-- Created with Inkscape (http://www.inkscape.org/) -->
<svg id="svg7384" xmlns:rdf="http://www.w3.org/1999/02/22-rdf-syntax-ns#" style="enable-background:new" xmlns="http://www.w3.org/2000/svg" xmlns:osb="http://www.openswatchbook.org/uri/2009/osb" height="24" width="24" version="1.1" xmlns:cc="http://creativecommons.org/ns#" xmlns:dc="http://purl.org/dc/elements/1.1/">
 <metadata id="metadata90">
  <rdf:RDF>
   <cc:Work rdf:about="">
    <dc:format>image/svg+xml</dc:format>
    <dc:type rdf:resource="http://purl.org/dc/dcmitype/StillImage"/>
    <dc:title>Paper Symbolic Icon Theme</dc:title>
   </cc:Work>
  </rdf:RDF>
 </metadata>
 <title id="title8473">Paper Symbolic Icon Theme</title>
 <defs id="defs7386">
  <style id="current-color-scheme" type="text/css">.ColorScheme-Text {
        color:#4d4d4d;
      }
      .ColorScheme-Background {
        color:#eff0f1;
      }
      .ColorScheme-Highlight {
        color:#3daee9;
      }
      .ColorScheme-ViewText {
        color:#31363b;
      }
      .ColorScheme-ViewBackground {
        color:#fcfcfc;
      }
      .ColorScheme-ViewHover {
        color:#93cee9;
      }
      .ColorScheme-ViewFocus{
        color:#3daee9;
      }
      .ColorScheme-ButtonText {
        color:#31363b;
      }
      .ColorScheme-ButtonBackground {
        color:#eff0f1;
      }
      .ColorScheme-ButtonHover {
        color:#93cee9;
      }
      .ColorScheme-ButtonFocus{
        color:#3daee9;
      }</style>
  <style id="current-color-scheme-0" type="text/css">.ColorScheme-Text {
        color:#4d4d4d;
      }
      .ColorScheme-Background {
        color:#eff0f1;
      }
      .ColorScheme-Highlight {
        color:#3daee9;
      }
      .ColorScheme-ViewText {
        color:#31363b;
      }
      .ColorScheme-ViewBackground {
        color:#fcfcfc;
      }
      .ColorScheme-ViewHover {
        color:#93cee9;
      }
      .ColorScheme-ViewFocus{
        color:#3daee9;
      }
      .ColorScheme-ButtonText {
        color:#31363b;
      }
      .ColorScheme-ButtonBackground {
        color:#eff0f1;
      }
      .ColorScheme-ButtonHover {
        color:#93cee9;
      }
      .ColorScheme-ButtonFocus{
        color:#3daee9;
      }</style>
 </defs>
 <g id="layer12" transform="translate(-585 -33)">
  <path id="path4393" opacity=".5" style="color:#000000;text-indent:0;block-progression:tb;text-decoration-line:none;enable-background:new;text-transform:none" d="m6 5s-0.0762 0.0041-0.1816 0.0234c-0.2042 0.0302-0.3587 0.1035-0.4727 0.2032-0.0221 0.0169-0.0435 0.035-0.0645 0.0546-0.0196 0.021-0.0376 0.0424-0.0546 0.0645-0.0996 0.114-0.173 0.2685-0.2032 0.4727-0.0194 0.1054-0.0234 0.1816-0.0234 0.1816v7 5c0 1 1 1 1 1h5 2 5s1 0 1-1v-5-7s-0.004-0.0762-0.023-0.1816c-0.031-0.2042-0.104-0.3587-0.204-0.4727-0.016-0.0221-0.035-0.0435-0.054-0.0645-0.021-0.0196-0.043-0.0377-0.065-0.0546-0.114-0.0997-0.268-0.173-0.472-0.2032-0.106-0.0193-0.182-0.0234-0.182-0.0234h-12zm2 4h2 1v1 1 2 1 1h-1-2v-2-2-2zm4 1h4v1h-4v-1zm0 3h4v1h-4v-1z" transform="translate(585 33)"/>
  <rect id="rect4035" style="color:#4d4d4d" class="ColorScheme-Text" height="11" width="0" y="45.285" x="561.1" fill="currentColor"/>
  <rect id="rect4035-5" style="color:#4d4d4d" class="ColorScheme-Text" height="11" width="0" y="43.234" x="579.14" fill="currentColor"/>
  <rect id="rect4035-8" style="color:#4d4d4d" class="ColorScheme-Text" height="11" width="0" y="45.285" x="561.1" fill="currentColor"/>
  <rect id="rect4035-59" style="color:#4d4d4d" class="ColorScheme-Text" height="11" width="0" y="45.285" x="561.1" fill="currentColor"/>
  <rect id="rect4035-1" style="color:#4d4d4d" class="ColorScheme-Text" height="11" width="0" y="45.285" x="574.1" fill="currentColor"/>
  <rect id="rect4035-2" style="color:#4d4d4d" class="ColorScheme-Text" height="11" width="0" y="45.551" x="567.96" fill="currentColor"/>
  <rect id="rect4035-5-6" style="color:#4d4d4d" class="ColorScheme-Text" height="11" width="0" y="43.5" x="586" fill="currentColor"/>
  <rect id="rect4035-8-0" style="color:#4d4d4d" class="ColorScheme-Text" height="11" width="0" y="45.551" x="567.96" fill="currentColor"/>
  <rect id="rect4035-59-5" style="color:#4d4d4d" class="ColorScheme-Text" height="11" width="0" y="45.551" x="567.96" fill="currentColor"/>
  <text id="text3781" style="color:#4d4d4d;word-spacing:0px;letter-spacing:0px" line-height="125%" font-size="9px" class="ColorScheme-Text" y="58.308594" x="583.39539" font-family="Sans" xml:space="preserve" fill="currentColor"><tspan id="tspan3783" x="583.39539" y="58.308594"/></text>
  <text id="text3781-8" style="color:#4d4d4d;word-spacing:0px;letter-spacing:0px" line-height="125%" font-size="9px" class="ColorScheme-Text" y="52.445251" x="584.13208" font-family="Sans" xml:space="preserve" fill="currentColor"><tspan id="tspan3783-1" x="584.13208" y="52.445251"/></text>
  <text id="text3781-4" style="color:#4d4d4d;word-spacing:0px;letter-spacing:0px" line-height="125%" font-size="9px" class="ColorScheme-Text" y="59.308594" x="577.39539" font-family="Sans" xml:space="preserve" fill="currentColor"><tspan id="tspan3783-13" x="577.39539" y="59.308594"/></text>
  <rect id="rect4035-9" style="color:#4d4d4d" class="ColorScheme-Text" height="11" width="0" y="45.551" x="567.96" fill="currentColor"/>
  <rect id="rect4035-5-7" style="color:#4d4d4d" class="ColorScheme-Text" height="11" width="0" y="43.5" x="586" fill="currentColor"/>
  <rect id="rect4035-9-0" style="color:#4d4d4d" class="ColorScheme-Text" height="11" width="0" y="45.551" x="547.96" fill="currentColor"/>
  <rect id="rect4035-5-7-5" style="color:#4d4d4d" class="ColorScheme-Text" height="11" width="0" y="43.5" x="566" fill="currentColor"/>
  <rect id="rect4035-0" style="color:#4d4d4d" class="ColorScheme-Text" height="11" width="0" y="42.285" x="565.1" fill="currentColor"/>
  <rect id="rect4035-5-2" style="color:#4d4d4d" class="ColorScheme-Text" height="11" width="0" y="40.234" x="583.14" fill="currentColor"/>
  <rect id="rect4035-8-6" style="color:#4d4d4d" class="ColorScheme-Text" height="11" width="0" y="42.285" x="565.1" fill="currentColor"/>
  <rect id="rect4035-59-0" style="color:#4d4d4d" class="ColorScheme-Text" height="11" width="0" y="42.285" x="565.1" fill="currentColor"/>
  <rect id="rect4035-1-1" style="color:#4d4d4d" class="ColorScheme-Text" height="11" width="0" y="42.285" x="578.1" fill="currentColor"/>
  <rect id="rect4035-2-5" style="color:#4d4d4d" class="ColorScheme-Text" height="11" width="0" y="42.551" x="571.96" fill="currentColor"/>
  <rect id="rect4035-5-6-5" style="color:#4d4d4d" class="ColorScheme-Text" height="11" width="0" y="40.5" x="590" fill="currentColor"/>
  <rect id="rect4035-8-0-7" style="color:#4d4d4d" class="ColorScheme-Text" height="11" width="0" y="42.551" x="571.96" fill="currentColor"/>
  <rect id="rect4035-59-5-9" style="color:#4d4d4d" class="ColorScheme-Text" height="11" width="0" y="42.551" x="571.96" fill="currentColor"/>
  <text id="text3781-1" style="color:#4d4d4d;word-spacing:0px;letter-spacing:0px" line-height="125%" font-size="9px" class="ColorScheme-Text" y="55.308594" x="587.39539" font-family="Sans" xml:space="preserve" fill="currentColor"><tspan id="tspan3783-9" x="587.39539" y="55.308594"/></text>
  <text id="text3781-8-5" style="color:#4d4d4d;word-spacing:0px;letter-spacing:0px" line-height="125%" font-size="9px" class="ColorScheme-Text" y="49.445251" x="588.13208" font-family="Sans" xml:space="preserve" fill="currentColor"><tspan id="tspan3783-1-1" x="588.13208" y="49.445251"/></text>
  <text id="text3781-4-7" style="color:#4d4d4d;word-spacing:0px;letter-spacing:0px" line-height="125%" font-size="9px" class="ColorScheme-Text" y="56.308594" x="581.39539" font-family="Sans" xml:space="preserve" fill="currentColor"><tspan id="tspan3783-13-3" x="581.39539" y="56.308594"/></text>
  <rect id="rect4035-9-07" style="color:#4d4d4d" class="ColorScheme-Text" height="11" width="0" y="42.551" x="571.96" fill="currentColor"/>
  <rect id="rect4035-5-7-59" style="color:#4d4d4d" class="ColorScheme-Text" height="11" width="0" y="40.5" x="590" fill="currentColor"/>
  <rect id="rect4035-9-0-1" style="color:#4d4d4d" class="ColorScheme-Text" height="11" width="0" y="42.551" x="551.96" fill="currentColor"/>
  <rect id="rect4035-5-7-5-2" style="color:#4d4d4d" class="ColorScheme-Text" height="11" width="0" y="40.5" x="570" fill="currentColor"/>
 </g>
</svg>
